icons/deaf.svg

<svg width="24" height="24" viewBox="0 0 24 24" fill="none" xmlns="http://www.w3.org/2000/svg">
<path fill-rule="evenodd" clip-rule="evenodd" d="M12.0027 2C14.5695 2 16.5896 3.07828 17.9578 4.63703C17.9578 4.63703 18.596 3.99864 19.8724 2.72188L20.2363 2.35785C20.7015 1.89729 21.1699 1.89729 21.6414 2.35785C22.113 2.8184 22.1157 3.28838 21.6495 3.76776L19.0974 6.31941C19.6916 7.48243 20.0027 8.76206 20.0027 10C20.0027 13.1199 18.2914 14.1877 18.1678 15.1861C18.0027 16.5201 17.7478 18.2906 17.2612 19.0481C16.3197 20.5138 14.5108 22 12.0023 22C12.0027 22 10.9896 22.0878 10.9896 21.0212C10.9896 19.9546 12.0023 20 12.0027 20C13.2981 20 14.5738 19.4289 15.7107 17.748C16.3459 16.8089 15.9727 15.5961 16.3261 14.21C16.6155 13.0751 18.0023 11.9556 18.0023 10C18.0028 7.18224 15.8072 4 12.0027 4C8.1982 4 6.00228 7.18224 6.00268 10C6.00268 10 6.00268 11 5.00268 11C4.00268 11 4.00268 10 4.00268 10C4.00268 6 6.93879 2 12.0027 2ZM9.17671 7.17591C10.7388 5.61382 13.2715 5.61383 14.8336 7.17593C16.3957 8.73802 16.3957 11.2707 14.8336 12.8328C14.8336 12.8328 14.1239 13.5424 13.4175 12.836C12.7817 12.2003 13.2916 11.5605 13.4 11.4389L13.4191 11.4183C14.1026 10.7381 14.3172 9.48796 13.4191 8.58986C12.521 7.69175 11.2725 7.908 10.5906 8.58986C10.5906 8.58986 9.88099 9.29952 9.17298 8.59151C8.46497 7.8835 9.17671 7.17591 9.17671 7.17591ZM10.2353 12.3536L11.6495 13.7678L3.76983 21.646C3.3147 22.1228 2.84601 22.1201 2.36374 21.6379C1.88148 21.1556 1.87877 20.6869 2.35562 20.2318L10.2353 12.3536Z" fill="#3A3A47"/>
</svg>

<svg xmlns="http://www.w3.org/2000/svg" width="24" height="24" viewBox="0 0 24 24">
    <path fill="#3A3A47" fill-rule="evenodd" d="M12.003 2c2.566 0 4.587 1.078 5.955 2.637l1.914-1.915.364-.364c.466-.46.934-.46 1.405 0 .472.46.475.93.009 1.41l-2.553 2.551A8.159 8.159 0 0 1 20.003 10c0 3.12-1.712 4.188-1.835 5.186-.165 1.334-.42 3.105-.907 3.862C16.32 20.514 14.511 22 12.002 22c0 0-1.012.088-1.012-.979 0-1.066 1.012-1.021 1.013-1.021 1.295 0 2.57-.571 3.708-2.252.635-.94.262-2.152.615-3.538.29-1.135 1.676-2.254 1.676-4.21 0-2.818-2.195-6-6-6-3.804 0-6 3.182-6 6 0 0 0 1-1 1s-1-1-1-1c0-4 2.937-8 8-8zM9.177 7.176a4 4 0 0 1 5.657 5.657s-.71.71-1.416.003c-.636-.636-.126-1.275-.018-1.397l.02-.02c.683-.68.897-1.931 0-2.83-.899-.897-2.147-.681-2.83 0 0 0-.709.71-1.417.003-.708-.709.004-1.416.004-1.416zm1.058 5.178l1.415 1.414-7.88 7.878c-.455.477-.924.474-1.406-.008-.483-.482-.485-.951-.008-1.406l7.88-7.878z"/>
</svg>
